X:1
T: The Dublin Porter
C:
R:Reel
Q: 232
K:G
M:4/4
L:1/8
B2 BA Bc dB|cB AB cd ec|d2 dd dc AG|FG Ac BG AG|
DG GA Bc dB|cB AB cd ef|g2 gd ec AF|G2 GG G2 ((3def) |
|:f2 fd fB ((3BBB) |g2 fg eA ((3AAA) |eA ((3AAA) e2 eg|fg af gb af|
f2 fd fB ((3BBB)|g2 fg eA ((3AAA) |eA ((3AAA) e2 eg|fg af ge dc:|
B2 BA Bc dB|cB AB cd ec|d2 dd dc AG|FG Ac BG AG|
DG GA Bc dB|cB AB cd ef|g2 gd ec AF|G2 GG G2 G2||
